X:1
T:Title
%%score ( 1 2 ) ( 3 4 )
L:1/8
Q:1/4=108
M:4/4
K:A
V:1 treble nm="Grand Piano, Soprano"
V:2 treble 
V:3 bass nm="Choir Pad, Song of the Shepherds"
V:4 bass 
V:1
 E2 c2 B2 A2 | C2 G2 FE C2 | D2 F2 c2 B2 | A2 G2 F2 E2 | E2 c2 B2 A2 | C2 G2 FE C2 | %6
w: By~Joseph~Lincoln~Hall * * *||||||
 [B,E]3 [B,E] [EG]2 [EB]2 | c2 B2 E4 | [FGd]3 [FGd] [EGc]2 [DGB]2 | F2 A2 GF E2 | %10
w: ||||
 [FGd]3 [FGd] [EGc]2 [DGB]2 | F2 A2 E4 | [=GAe]3 [GAe] [FAd]2 [EAc]2 | [DFB]2 [CEA]2 GF [=C^DA]2 | %14
w: ||||
 [CE]3 [CE] [=C^D]2 [^CE]2 | [Ec]3 [DB] [CA]4 | [CE]4 [=CG]2 [CF]2 | E2- [DE-]2 [DE-]2 [CE]2 | %18
w: ||||
 [DE]4 [DF]2 [DE]2 | A4- [DA-]2 [DA-]2 | [CA]8 |] %21
w: |||
V:2
 C8 | x8 | z4 F4 | D8 | C8 | x8 | x8 | ^D4 z4 | x8 | C8 | x8 | C8 | x8 | z4 [B,D]2 z2 | x8 | x8 | %16
 x8 | C2 z2 z4 | x8 | C4 z4 | x8 |] %21
V:3
 z2 E,2 A,2 E,2 | z2 E,2 A,2 E,2 | z2 A,2 D2 A,2 | B,4 A,2 G,2 | z2 E,2 A,2 E,2 | z2 E,2 A,2 E,2 | %6
 z2 G,2 B,2 G,2 | [B,,A,]4 [E,G,]4 | z2 E,2 E,2 E,2 | z2 A,2 A,2 A,2 | z2 E,2 E,2 E,2 | %11
 z2 A,2 A,2 A,2 | z2 A,2 D,2 [E,A,]2 | B,,2 C,2 D,2 [F,A,]2 | [E,A,]2 [E,A,]2 [F,A,]2 [E,A,]2 | %15
 [E,G,]2 [E,G,]2 [A,,A,]4 | E,2 F,E, ^D,2 F,G, | A,2 B,2 B,2 A,2 | G,2 B,2 [E,A,]2 [E,G,]2 | %19
 A,2 G,2 F,2 ^E,2 | E,8 |] %21
V:4
 A,,8 | A,,8 | D,8 | E,8 | A,,8 | A,,8 | B,,8 | x8 | E,,8 | A,,8 | E,,8 | A,,8 | C,4 z4 | x8 | x8 | %15
 x8 | A,,8 | A,,8 | E,4 z4 | A,,8- | A,,8 |] %21

